static/img/kroki/ade265ddbc233f62548d21dbc56f15ee.svg

<?xml version="1.0" encoding="us-ascii" standalone="no"?><svg xmlns="http://www.w3.org/2000/svg" xmlns:xlink="http://www.w3.org/1999/xlink" contentStyleType="text/css" height="152px" preserveAspectRatio="none" style="width:366px;height:152px;" version="1.1" viewBox="0 0 366 152" width="366px" zoomAndPan="magnify"><defs/><g><!--class gcp_disk--><g id="elem_gcp_disk"><rect codeLine="22" fill="#3D176E" height="39.7891" id="gcp_disk" rx="2.5" ry="2.5" style="stroke:#000D19;stroke-width:0.5;" width="112" x="7" y="106.79"/><ellipse cx="22" cy="126.6845" fill="#ADD1B2" rx="11" ry="11" style="stroke:#181818;stroke-width:1.0;"/><path d="M24.9688,132.3252 Q24.3906,132.622 23.75,132.7627 Q23.1094,132.9189 22.4063,132.9189 Q19.9063,132.9189 18.5781,131.2783 Q17.2656,129.622 17.2656,126.497 Q17.2656,123.372 18.5781,121.7158 Q19.9063,120.0595 22.4063,120.0595 Q23.1094,120.0595 23.75,120.2158 Q24.4063,120.372 24.9688,120.6689 L24.9688,123.3877 Q24.3438,122.8095 23.75,122.5439 Q23.1563,122.2627 22.5313,122.2627 Q21.1875,122.2627 20.5,123.3408 Q19.8125,124.4033 19.8125,126.497 Q19.8125,128.5908 20.5,129.6689 Q21.1875,130.7314 22.5313,130.7314 Q23.1563,130.7314 23.75,130.4658 Q24.3438,130.1845 24.9688,129.6064 L24.9688,132.3252 Z " fill="#000000"/><text fill="#D9B8FF" font-family="Helvetica" font-size="17" lengthAdjust="spacing" textLength="70" x="41" y="132.5698">gcp_disk</text></g><!--class gcp_disk_type--><g id="elem_gcp_disk_type"><rect codeLine="24" fill="#3D176E" height="39.7891" id="gcp_disk_type" rx="2.5" ry="2.5" style="stroke:#000D19;stroke-width:0.5;" width="158" x="81" y="7"/><ellipse cx="96" cy="26.8945" fill="#ADD1B2" rx="11" ry="11" style="stroke:#181818;stroke-width:1.0;"/><path d="M98.9688,32.5352 Q98.3906,32.832 97.75,32.9727 Q97.1094,33.1289 96.4063,33.1289 Q93.9063,33.1289 92.5781,31.4883 Q91.2656,29.832 91.2656,26.707 Q91.2656,23.582 92.5781,21.9258 Q93.9063,20.2695 96.4063,20.2695 Q97.1094,20.2695 97.75,20.4258 Q98.4063,20.582 98.9688,20.8789 L98.9688,23.5977 Q98.3438,23.0195 97.75,22.7539 Q97.1563,22.4727 96.5313,22.4727 Q95.1875,22.4727 94.5,23.5508 Q93.8125,24.6133 93.8125,26.707 Q93.8125,28.8008 94.5,29.8789 Q95.1875,30.9414 96.5313,30.9414 Q97.1563,30.9414 97.75,30.6758 Q98.3438,30.3945 98.9688,29.8164 L98.9688,32.5352 Z " fill="#000000"/><text fill="#D9B8FF" font-family="Helvetica" font-size="17" lengthAdjust="spacing" textLength="116" x="115" y="32.7798">gcp_disk_type</text></g><!--class gcp_node_template--><g id="elem_gcp_node_template"><rect codeLine="26" fill="#3D176E" height="39.7891" id="gcp_node_template" rx="2.5" ry="2.5" style="stroke:#000D19;stroke-width:0.5;" width="205" x="154.5" y="106.79"/><ellipse cx="169.5" cy="126.6845" fill="#ADD1B2" rx="11" ry="11" style="stroke:#181818;stroke-width:1.0;"/><path d="M172.4688,132.3252 Q171.8906,132.622 171.25,132.7627 Q170.6094,132.9189 169.9063,132.9189 Q167.4063,132.9189 166.0781,131.2783 Q164.7656,129.622 164.7656,126.497 Q164.7656,123.372 166.0781,121.7158 Q167.4063,120.0595 169.9063,120.0595 Q170.6094,120.0595 171.25,120.2158 Q171.9063,120.372 172.4688,120.6689 L172.4688,123.3877 Q171.8438,122.8095 171.25,122.5439 Q170.6563,122.2627 170.0313,122.2627 Q168.6875,122.2627 168,123.3408 Q167.3125,124.4033 167.3125,126.497 Q167.3125,128.5908 168,129.6689 Q168.6875,130.7314 170.0313,130.7314 Q170.6563,130.7314 171.25,130.4658 Q171.8438,130.1845 172.4688,129.6064 L172.4688,132.3252 Z " fill="#000000"/><text fill="#D9B8FF" font-family="Helvetica" font-size="17" lengthAdjust="spacing" textLength="163" x="188.5" y="132.5698">gcp_node_template</text></g><!--link gcp_disk_type to gcp_disk--><g id="link_gcp_disk_type_gcp_disk"><path codeLine="28" d="M140.84,47.22 C125.16,63.02 102.93,85.43 86.24,102.26 " fill="none" id="gcp_disk_type-to-gcp_disk" style="stroke:#1A83AF;stroke-width:2.0;"/><polygon fill="#1A83AF" points="83.12,105.41,92.2981,101.8374,86.6412,101.8602,86.6184,96.2034,83.12,105.41" style="stroke:#1A83AF;stroke-width:2.0;"/></g><!--link gcp_disk_type to gcp_node_template--><g id="link_gcp_disk_type_gcp_node_template"><path codeLine="29" d="M179.16,47.22 C194.84,63.02 217.07,85.43 233.76,102.26 " fill="none" id="gcp_disk_type-to-gcp_node_template" style="stroke:#1A83AF;stroke-width:2.0;"/><polygon fill="#1A83AF" points="236.88,105.41,233.3816,96.2034,233.3588,101.8602,227.7019,101.8374,236.88,105.41" style="stroke:#1A83AF;stroke-width:2.0;"/></g><!--SRC=[XP91IyD048Nl_HKBFHSIYoQv235Gz5B4UXCfc-niiYJP3RDJInN_kutLijsqpVMzRz-y6RPI0XYq7UrO2sqEQ2UsLhhZo5kM8ffjPXg3R2ebb_F8DnT6qoYmv2smHsW-W5J1VUArKaMjmLfsurWFlAXBD1ij3l64NDkz1PeSAckujIaHgdn3u9GHIHvBwPD-w7GkmkWE1fX10VY7144WmiH7HaTTtVj8hDGdiD0zsj8G36eEHlnILrlsX5DoiEY_Vx7ZCnT2wPBTEjhBeHDgm1DzLN5XjZqjUMFTCPO0mT2kWsom5IInaD5P-EaINFINOsNHhOMoDVkQV7lIkd_kwTe8MDF-apUS3jufFNkRXcayJnVli_jZq1Xp4le3]--></g></svg>

<svg xmlns="http://www.w3.org/2000/svg" width="366" height="152" preserveAspectRatio="none" style="width:366px;height:152px"><rect width="112" height="39.789" x="7" y="106.79" fill="#3D176E" rx="2.5" ry="2.5" style="stroke:#000d19;stroke-width:.5"/><circle cx="22" cy="126.684" r="11" fill="#ADD1B2" style="stroke:#181818;stroke-width:1"/><path d="M24.969 132.325q-.578.297-1.219.438-.64.156-1.344.156-2.5 0-3.828-1.64-1.312-1.657-1.312-4.782t1.312-4.781q1.328-1.656 3.828-1.656.703 0 1.344.156.656.156 1.219.453v2.719q-.625-.579-1.219-.844-.594-.281-1.219-.281-1.343 0-2.031 1.078-.688 1.062-.688 3.156 0 2.094.688 3.172.688 1.062 2.031 1.062.625 0 1.219-.265.594-.281 1.219-.86v2.72Z"/><text x="41" y="132.57" fill="#D9B8FF" font-family="Helvetica" font-size="17" textLength="70">gcp_disk</text><rect width="158" height="39.789" x="81" y="7" fill="#3D176E" rx="2.5" ry="2.5" style="stroke:#000d19;stroke-width:.5"/><circle cx="96" cy="26.895" r="11" fill="#ADD1B2" style="stroke:#181818;stroke-width:1"/><path d="M98.969 32.535q-.578.297-1.219.438-.64.156-1.344.156-2.5 0-3.828-1.64-1.312-1.657-1.312-4.782t1.312-4.781q1.328-1.656 3.828-1.656.703 0 1.344.156.656.156 1.219.453v2.719q-.625-.578-1.219-.844-.594-.281-1.219-.281-1.344 0-2.031 1.078-.688 1.062-.688 3.156 0 2.094.688 3.172.688 1.062 2.031 1.062.625 0 1.219-.265.594-.281 1.219-.86v2.72Z"/><text x="115" y="32.78" fill="#D9B8FF" font-family="Helvetica" font-size="17" textLength="116">gcp_disk_type</text><rect width="205" height="39.789" x="154.5" y="106.79" fill="#3D176E" rx="2.5" ry="2.5" style="stroke:#000d19;stroke-width:.5"/><circle cx="169.5" cy="126.684" r="11" fill="#ADD1B2" style="stroke:#181818;stroke-width:1"/><path d="M172.469 132.325q-.578.297-1.219.438-.64.156-1.344.156-2.5 0-3.828-1.64-1.312-1.657-1.312-4.782t1.312-4.781q1.328-1.656 3.828-1.656.703 0 1.344.156.656.156 1.219.453v2.719q-.625-.579-1.219-.844-.594-.281-1.219-.281-1.344 0-2.031 1.078-.688 1.062-.688 3.156 0 2.094.688 3.172.688 1.062 2.031 1.062.625 0 1.219-.265.594-.281 1.219-.86v2.72Z"/><text x="188.5" y="132.57" fill="#D9B8FF" font-family="Helvetica" font-size="17" textLength="163">gcp_node_template</text><path fill="none" d="M140.84 47.22c-15.68 15.8-37.91 38.21-54.6 55.04" style="stroke:#1a83af;stroke-width:2"/><path fill="#1A83AF" d="m83.12 105.41 9.178-3.573-5.657.023-.023-5.657-3.498 9.207z" style="stroke:#1a83af;stroke-width:2"/><path fill="none" d="M179.16 47.22c15.68 15.8 37.91 38.21 54.6 55.04" style="stroke:#1a83af;stroke-width:2"/><path fill="#1A83AF" d="m236.88 105.41-3.498-9.207-.023 5.657-5.657-.023 9.178 3.573z" style="stroke:#1a83af;stroke-width:2"/></svg>
